app/img/technology/ic_runs.svg

<svg width="121" height="82" viewBox="0 0 121 82" fill="none" xmlns="http://www.w3.org/2000/svg">
    <g filter="url(#filter0_i)">
        <rect width="89" height="79" rx="10" fill="#022AF0"/>
    </g>
    <rect x="0.5" y="0.5" width="88" height="78" rx="9.5" stroke="#FAFAFA" stroke-opacity="0.1"/>
    <rect x="9" y="13" width="50" height="8" rx="4" fill="#131DAA" fill-opacity="0.37"/>
    <rect x="9.5" y="13.5" width="49" height="7" rx="3.5" stroke="#80FF9F" stroke-opacity="0.5"/>
    <rect x="71" y="13" width="10" height="8" rx="4" fill="#022AF0" fill-opacity="0.36"/>
    <rect x="71.5" y="13.5" width="9" height="7" rx="3.5" stroke="#80FF9F" stroke-opacity="0.5"/>
    <rect x="9" y="34" width="39" height="34" rx="5" fill="#0A1193" fill-opacity="0.4"/>
    <rect x="9.5" y="34.5" width="38" height="33" rx="4.5" stroke="#80FF9F" stroke-opacity="0.5"/>
    <rect width="32" height="13" rx="5" transform="matrix(-1 0 0 1 84 34)" fill="#131DAA" fill-opacity="0.12"/>
    <rect x="-0.5" y="0.5" width="31" height="12" rx="4.5" transform="matrix(-1 0 0 1 83 34)" stroke="#80FF9F"
          stroke-opacity="0.5"/>
    <rect width="32" height="13" rx="5" transform="matrix(-1 0 0 1 84 51)" fill="#131DAA" fill-opacity="0.23"/>
    <rect x="-0.5" y="0.5" width="31" height="12" rx="4.5" transform="matrix(-1 0 0 1 83 51)" stroke="#80FF9F"
          stroke-opacity="0.5"/>
    <path fill-rule="evenodd" clip-rule="evenodd"
          d="M77.5933 64.2204C77.7053 64.2222 77.8183 64.225 77.9304 64.2268C80.5366 58.2129 86.5751 54 93.6119 54C100.667 54 106.721 58.234 109.315 64.2763C109.674 64.2414 110.037 64.2204 110.407 64.2204C116.258 64.2204 121 68.9106 121 74.6982C121 77.3878 119.976 79.84 118.292 81.6951C118.112 81.8938 117.853 82 117.585 82C110.596 82 103.607 82 96.618 82C96.0657 82 95.618 81.5523 95.618 81C95.618 77.4482 95.618 73.8958 95.618 70.3442C96.6823 71.4191 97.7458 72.4948 98.8099 73.5699C99.0055 73.7675 99.3248 73.7675 99.5204 73.5699C100.049 73.0362 100.577 72.5021 101.105 71.9683C101.298 71.7735 101.298 71.4596 101.105 71.2647C98.8552 68.9908 96.6056 66.7169 94.3554 64.443C94.1597 64.2453 93.8403 64.2453 93.6446 64.443C91.3944 66.7169 89.1448 68.9908 86.8946 71.2647C86.7017 71.4596 86.7018 71.7735 86.8947 71.9683C87.4231 72.502 87.9511 73.0361 88.4795 73.5698C88.6751 73.7674 88.9945 73.7673 89.1901 73.5696C90.2544 72.494 91.3187 71.419 92.3829 70.3433C92.3829 73.8958 92.3829 77.4476 92.3829 81C92.3829 81.5523 91.9352 82 91.3829 82C84.3941 82 77.4044 82 70.4156 82C70.1473 82 69.8884 81.8937 69.7081 81.6949C68.0252 79.8399 67 77.3878 67 74.6982C67 68.9106 71.7419 64.2204 77.5933 64.2204Z"
          fill="url(#paint0_linear)"/>
    <defs>
        <filter id="filter0_i" x="0" y="0" width="89" height="83" filterUnits="userSpaceOnUse"
                color-interpolation-filters="sRGB">
            <feFlood flood-opacity="0" result="BackgroundImageFix"/>
            <feBlend mode="normal" in="SourceGraphic" in2="BackgroundImageFix" result="shape"/>
            <feColorMatrix in="SourceAlpha" type="matrix" values="0 0 0 0 0 0 0 0 0 0 0 0 0 0 0 0 0 0 127 0"
                           result="hardAlpha"/>
            <feOffset dy="4"/>
            <feGaussianBlur stdDeviation="15"/>
            <feComposite in2="hardAlpha" operator="arithmetic" k2="-1" k3="1"/>
            <feColorMatrix type="matrix" values="0 0 0 0 0.5 0 0 0 0 1 0 0 0 0 0.625065 0 0 0 1 0"/>
            <feBlend mode="normal" in2="shape" result="effect1_innerShadow"/>
        </filter>
        <linearGradient id="paint0_linear" x1="61.1622" y1="48.8958" x2="120.972" y2="88.3132"
                        gradientUnits="userSpaceOnUse">
            <stop stop-color="#7BF9AB"/>
            <stop offset="1" stop-color="#5BD3EA"/>
        </linearGradient>
    </defs>
</svg>

<svg width="121" height="82" fill="none" xmlns="http://www.w3.org/2000/svg"><g filter="url(#a)"><rect width="89" height="79" rx="10" fill="#022AF0"/></g><rect x=".5" y=".5" width="88" height="78" rx="9.5" stroke="#FAFAFA" stroke-opacity=".1"/><rect x="9" y="13" width="50" height="8" rx="4" fill="#131DAA" fill-opacity=".37"/><rect x="9.5" y="13.5" width="49" height="7" rx="3.5" stroke="#80FF9F" stroke-opacity=".5"/><rect x="71" y="13" width="10" height="8" rx="4" fill="#022AF0" fill-opacity=".36"/><rect x="71.5" y="13.5" width="9" height="7" rx="3.5" stroke="#80FF9F" stroke-opacity=".5"/><rect x="9" y="34" width="39" height="34" rx="5" fill="#0A1193" fill-opacity=".4"/><rect x="9.5" y="34.5" width="38" height="33" rx="4.5" stroke="#80FF9F" stroke-opacity=".5"/><rect width="32" height="13" rx="5" transform="matrix(-1 0 0 1 84 34)" fill="#131DAA" fill-opacity=".12"/><rect x="-.5" y=".5" width="31" height="12" rx="4.5" transform="matrix(-1 0 0 1 83 34)" stroke="#80FF9F" stroke-opacity=".5"/><rect width="32" height="13" rx="5" transform="matrix(-1 0 0 1 84 51)" fill="#131DAA" fill-opacity=".23"/><rect x="-.5" y=".5" width="31" height="12" rx="4.5" transform="matrix(-1 0 0 1 83 51)" stroke="#80FF9F" stroke-opacity=".5"/><path fill-rule="evenodd" clip-rule="evenodd" d="m77.593 64.22.337.007C80.537 58.213 86.575 54 93.612 54c7.055 0 13.109 4.234 15.703 10.276.359-.035.722-.056 1.092-.056 5.851 0 10.593 4.69 10.593 10.478 0 2.69-1.024 5.142-2.708 6.997a.95.95 0 0 1-.707.305H96.618a1 1 0 0 1-1-1V70.344l3.192 3.226a.5.5 0 0 0 .71 0l1.585-1.602a.5.5 0 0 0 0-.703l-6.75-6.822a.5.5 0 0 0-.71 0l-6.75 6.822a.5.5 0 0 0 0 .703l1.585 1.602a.5.5 0 0 0 .71 0l3.193-3.227V81a1 1 0 0 1-1 1H70.416a.951.951 0 0 1-.708-.305A10.378 10.378 0 0 1 67 74.698c0-5.787 4.742-10.478 10.593-10.478Z" fill="url(#b)"/><defs><linearGradient id="b" x1="61.162" y1="48.896" x2="120.972" y2="88.313" gradientUnits="userSpaceOnUse"><stop stop-color="#7BF9AB"/><stop offset="1" stop-color="#5BD3EA"/></linearGradient><filter id="a" x="0" y="0" width="89" height="83" filterUnits="userSpaceOnUse" color-interpolation-filters="sRGB"><feFlood flood-opacity="0" result="BackgroundImageFix"/><feBlend in="SourceGraphic" in2="BackgroundImageFix" result="shape"/><feColorMatrix in="SourceAlpha" values="0 0 0 0 0 0 0 0 0 0 0 0 0 0 0 0 0 0 127 0" result="hardAlpha"/><feOffset dy="4"/><feGaussianBlur stdDeviation="15"/><feComposite in2="hardAlpha" operator="arithmetic" k2="-1" k3="1"/><feColorMatrix values="0 0 0 0 0.5 0 0 0 0 1 0 0 0 0 0.625065 0 0 0 1 0"/><feBlend in2="shape" result="effect1_innerShadow"/></filter></defs></svg>
